X: 1021
T: Whiskey Before Breakfast
B: jims roots
M:4/4
L:1/8
R: reel
Q: 1/4=100
K:Dmaj
V:1 
|: "D"DEFG A4 | ABAF EDEF | "G"[G4B] "D"[F4A] | "A"EFED CA,B,C |
"D"DEFG A4 | ABAG FDEF | "G"GBAG "D"(3 FGF ED | "A"CDEC "D"D2 z2:|
|: "D"DEFA d2A2 | dBAF ED-D2 | DEFA "E"EFGB | edcB "A"A2A2  |
"D"fAdf "A"eAce | "G"dABd  "D"AFAd | "G"GBAG "D"(3 FGF ED | "A"CDEC "D"D2 z2 :|
% abcbook-tune_id 6298c29765e9b8f5cf7c7321


% abcbook-boost 0
% abcbook-tablature 
% abcbook-transpose 
% abcbook-lastupdated 1654178456848
% abcbook-soundfonts 
% abcbook-repeats 1


